X: 42008
T: Walsh's Dream
R: reel
M: 4/4
K: Eminor
EGA|:BedB GEE2|GABe g2fe|dAFA dfaf|egfe dBcA|
BedB GEE2|GABe g2fe|dAA2 ABde|1 faba fee2:|2 faba feea||
|:bgef geBg|bgef g2ga|bgdg bgdg|f~a3 a2ga|
bgef geBg|bgeb g2fe|B2BA Beef|gaba feea:|

